logo/goland.svg

<?xml version="1.0" encoding="UTF-8"?>
<svg width="256px" height="256px" viewBox="0 0 256 256" version="1.1" xmlns="http://www.w3.org/2000/svg" preserveAspectRatio="xMidYMid">
    <title>GoLand</title>
    <defs>
        <linearGradient x1="63.100875%" y1="29.811449%" x2="28.8742684%" y2="83.7098692%" id="golandLinearGradient-1">
            <stop stop-color="#087CFA" offset="0%"></stop>
            <stop stop-color="#0D7BFA" offset="2%"></stop>
            <stop stop-color="#5566F9" offset="37%"></stop>
            <stop stop-color="#8A57F8" offset="66%"></stop>
            <stop stop-color="#AB4EF7" offset="88%"></stop>
            <stop stop-color="#B74AF7" offset="100%"></stop>
        </linearGradient>
        <linearGradient x1="49.1244199%" y1="38.4645211%" x2="74.8721245%" y2="4.95023911%" id="golandLinearGradient-2">
            <stop stop-color="#087CFA" offset="0%"></stop>
            <stop stop-color="#0D7BFA" offset="2%"></stop>
            <stop stop-color="#5566F9" offset="37%"></stop>
            <stop stop-color="#8A57F8" offset="66%"></stop>
            <stop stop-color="#AB4EF7" offset="88%"></stop>
            <stop stop-color="#B74AF7" offset="100%"></stop>
        </linearGradient>
        <linearGradient x1="13.8958333%" y1="71.0629926%" x2="86.03125%" y2="34.5494293%" id="golandLinearGradient-3">
            <stop stop-color="#087CFA" offset="0%"></stop>
            <stop stop-color="#1598D3" offset="10%"></stop>
            <stop stop-color="#23B6AA" offset="22%"></stop>
            <stop stop-color="#2DCC8B" offset="35%"></stop>
            <stop stop-color="#35DD74" offset="46%"></stop>
            <stop stop-color="#39E767" offset="57%"></stop>
            <stop stop-color="#3BEA62" offset="67%"></stop>
        </linearGradient>
    </defs>
    <g>
        <polygon fill="url(#golandLinearGradient-1)" points="225.493333 99.0133333 256 166.666667 203.786667 256 171.626667 177.92"></polygon>
        <polygon fill="#B74AF7" points="171.626667 177.92 203.786667 256 122.88 228.186667"></polygon>
        <polygon fill="url(#golandLinearGradient-2)" points="180.346667 72.2933333 163.76 0 71.7866667 0 2.36847579e-15 109.813333 20.7733333 160.266667 0 206.32 148.666667 79.84"></polygon>
        <polygon fill="url(#golandLinearGradient-3)" points="256 54.3466667 148.666667 79.84 0 206.32 95.8933333 256 171.626667 177.92"></polygon>
        <polygon fill="#000000" points="48 48 208 48 208 208 48 208"></polygon>
        <path d="M63.0133333,178 L123.013333,178 L123.013333,188 L63.0133333,188 L63.0133333,178 Z M58.5062826,102.16 L58.5062826,101.973333 C58.4758573,92.8466989 62.1299574,84.0939468 68.6409718,77.6983938 C75.1519861,71.3028408 83.9687107,67.8059161 93.0933333,68 C102.592309,67.4993732 111.908588,70.7452297 119.04,77.04 L109.893333,88.08 C105.255935,83.6454616 99.0554455,81.2208497 92.64,81.3333333 C82.1866667,81.3333333 74.0126827,90.2970667 73.6899046,101.196966 L73.68,102.053333 C73.68,113.901026 81.657426,122.644961 93.0084371,122.976884 L93.68,122.986667 C98.53551,123.12942 103.312637,121.739202 107.333333,119.013333 L107.333333,109.52 L92.72,109.52 L92.72,96.9866667 L121.333333,96.9866667 L121.333333,125.626667 C113.512196,132.410159 103.499699,136.132876 93.1466667,136.10694 C72.64,136.10694 58.5062826,121.68 58.5062826,102.16 Z M127.466667,102.16 L127.466667,101.973333 C127.498166,92.7629553 131.253397,83.9568481 137.878184,77.5580779 C144.50297,71.1593076 153.434075,67.7118951 162.64,68 C182.691787,68 197.175247,82.7367136 197.590845,101.107214 L197.600053,102.106667 C197.611513,111.340051 193.878905,120.183575 187.255122,126.616384 C180.867903,132.819449 172.318673,136.269755 163.441,136.25588 L162.453333,136.24 C142.08,136.106667 127.466667,120.933333 127.466667,102.16 Z M182.426667,102.16 L182.426667,101.973333 C182.59237,96.56572 180.563153,91.3211158 176.800901,87.4332884 C173.038649,83.545461 167.863472,81.345203 162.453333,81.3331104 C157.083309,81.3152429 151.937837,83.4864545 148.204056,87.3460362 C144.656965,91.0126389 142.674995,95.9021191 142.653681,100.982985 L142.666667,101.973333 C142.478862,107.401648 144.501062,112.673963 148.270745,116.584381 C152.040427,120.494798 157.235116,122.708802 162.666667,122.720098 C168.051328,122.732004 173.20703,120.543064 176.938288,116.660742 C180.669547,112.77842 182.652254,107.539947 182.426667,102.16 Z" fill="#FFFFFF"></path>
    </g>
</svg>

<svg viewBox="0 0 256 256" xmlns="http://www.w3.org/2000/svg" xmlns:xlink="http://www.w3.org/1999/xlink"><defs><linearGradient id="a" x1="63.1%" x2="28.874%" y1="29.811%" y2="83.709%"><stop offset="0%" stop-color="#087CFA"/><stop offset="2%" stop-color="#0D7BFA"/><stop offset="37%" stop-color="#5566F9"/><stop offset="66%" stop-color="#8A57F8"/><stop offset="88%" stop-color="#AB4EF7"/><stop offset="100%" stop-color="#B74AF7"/></linearGradient><linearGradient id="b" x1="49.124%" x2="74.872%" y1="38.464%" y2="4.95%" xlink:href="#a"/><linearGradient id="c" x1="13.895%" x2="86.031%" y1="71.062%" y2="34.549%"><stop offset="0%" stop-color="#087CFA"/><stop offset="10%" stop-color="#1598D3"/><stop offset="22%" stop-color="#23B6AA"/><stop offset="35%" stop-color="#2DCC8B"/><stop offset="46%" stop-color="#35DD74"/><stop offset="57%" stop-color="#39E767"/><stop offset="67%" stop-color="#3BEA62"/></linearGradient></defs><path fill="url(#a)" d="M225.49 99.01l30.5 67.65 -52.22 89.33 -32.16-78.08Z"/><path fill="#B74AF7" d="M171.62 177.92L203.78 256l-80.91-27.82Z"/><path fill="url(#b)" d="M180.34 72.29L163.75-.01l-91.98 0L-.02 109.8l20.77 50.45L-.03 206.3 148.63 79.82Z"/><path fill="url(#c)" d="M256 54.34L148.66 79.83 -.01 206.31l95.89 49.68 75.73-78.08Z"/><path d="M48 48l160 0 0 160 -160 0Z"/><path fill="#FFF" d="M63.01 178h60v10h-60v-10Zm-4.51-75.84v-.19c-.04-9.13 3.62-17.88 10.13-24.28 6.51-6.4 15.32-9.9 24.45-9.7 9.49-.51 18.81 2.74 25.94 9.04l-9.15 11.04c-4.64-4.44-10.84-6.86-17.26-6.75 -10.46 0-18.63 8.96-18.96 19.86l-.01.85c0 11.84 7.97 20.59 19.32 20.92l.67 0c4.85.14 9.63-1.25 13.65-3.98v-9.5H92.66V96.93h28.61v28.64c-7.83 6.78-17.84 10.5-28.19 10.48 -20.51 0-34.65-14.43-34.65-33.95Zm68.96 0v-.19c.03-9.22 3.78-18.02 10.41-24.42 6.62-6.4 15.55-9.85 24.76-9.56 20.05 0 34.53 14.73 34.95 33.1l0 .99c.01 9.23-3.73 18.07-10.35 24.5 -6.39 6.2-14.94 9.65-23.82 9.63l-.99-.02c-20.38-.14-34.99-15.31-34.99-34.08Zm54.96 0v-.19c.16-5.41-1.87-10.66-5.63-14.55 -3.77-3.89-8.94-6.09-14.35-6.11 -5.38-.02-10.52 2.15-14.25 6.01 -3.55 3.66-5.53 8.55-5.56 13.63l.01.99c-.19 5.42 1.83 10.7 5.6 14.61 3.76 3.91 8.96 6.12 14.39 6.13 5.38.01 10.54-2.18 14.27-6.06 3.73-3.89 5.71-9.13 5.48-14.51Z"/></svg>
